X: 4699
T: Boys In The Bunker, The
R: polka
M: 2/4
K: Aminor
|:Ae ed|Bc dB|cd ef|ed cB|
Ae ed|Bc de/^f/|ge dB|1 cA A^G:|2 cA Ad||
|:e2 ce|dg Bd|cd ef|ed ce|
g2 dc|BG AB|ce dB|1 cA Ad:|2 cA A2||

